X: 142103
T: FISHERS HORNPIPE
R:  Hornpipe.
%R: hornpipe, reel
B: James Kerr "Merry Melodies" v.1 p.42 s.1 #3
Z: 2016 John Chambers <jc:trillian.mit.edu>
M: C
L: 1/8
K: D
(3(ABc) |\
dAFA GBAG | FAFA GBAG | FDFD GEGE | FDFD E2 (3(ABc) |\
dAFA GBAG | FAFA GBAG | FAdA fedc | d2d2d2 :|
|: (cd) |\
ecAc ecge | fdAd fdaf | ecAc ecgf | edcB A2A2 |\
BGEG BGdB | AFDF AFdA | BdcB AGFE | D2D2D2 H:|

%%sep 1 1 500
%%sep 1 1 500

